images/11949106.svg

<?xml version="1.0" encoding="UTF-8"?>
<svg xmlns="http://www.w3.org/2000/svg" xmlns:xlink="http://www.w3.org/1999/xlink" width="300pt" height="300pt" viewBox="0 0 300 300" version="1.1">
<defs>
<g>
<symbol overflow="visible" id="glyph0-0">
<path style="stroke:none;" d="M 0.546875 1.9375 L 0.546875 -7.75 L 6.046875 -7.75 L 6.046875 1.9375 Z M 1.171875 1.328125 L 5.4375 1.328125 L 5.4375 -7.140625 L 1.171875 -7.140625 Z M 1.171875 1.328125 "/>
</symbol>
<symbol overflow="visible" id="glyph0-1">
<path style="stroke:none;" d="M 4.328125 -7.28125 C 3.546875 -7.28125 2.921875 -6.984375 2.453125 -6.390625 C 1.992188 -5.804688 1.765625 -5.007812 1.765625 -4 C 1.765625 -2.988281 1.992188 -2.1875 2.453125 -1.59375 C 2.921875 -1.007812 3.546875 -0.71875 4.328125 -0.71875 C 5.117188 -0.71875 5.742188 -1.007812 6.203125 -1.59375 C 6.660156 -2.1875 6.890625 -2.988281 6.890625 -4 C 6.890625 -5.007812 6.660156 -5.804688 6.203125 -6.390625 C 5.742188 -6.984375 5.117188 -7.28125 4.328125 -7.28125 Z M 4.328125 -8.171875 C 5.453125 -8.171875 6.351562 -7.789062 7.03125 -7.03125 C 7.707031 -6.28125 8.046875 -5.269531 8.046875 -4 C 8.046875 -2.738281 7.707031 -1.726562 7.03125 -0.96875 C 6.351562 -0.21875 5.453125 0.15625 4.328125 0.15625 C 3.203125 0.15625 2.300781 -0.21875 1.625 -0.96875 C 0.957031 -1.71875 0.625 -2.726562 0.625 -4 C 0.625 -5.269531 0.957031 -6.28125 1.625 -7.03125 C 2.300781 -7.789062 3.203125 -8.171875 4.328125 -8.171875 Z M 4.328125 -8.171875 "/>
</symbol>
<symbol overflow="visible" id="glyph0-2">
<path style="stroke:none;" d="M 1.078125 -8.015625 L 2.546875 -8.015625 L 6.09375 -1.3125 L 6.09375 -8.015625 L 7.15625 -8.015625 L 7.15625 0 L 5.6875 0 L 2.125 -6.703125 L 2.125 0 L 1.078125 0 Z M 1.078125 -8.015625 "/>
</symbol>
<symbol overflow="visible" id="glyph0-3">
<path style="stroke:none;" d="M 5.890625 -7.75 L 5.890625 -6.703125 C 5.472656 -6.898438 5.082031 -7.046875 4.71875 -7.140625 C 4.351562 -7.234375 4 -7.28125 3.65625 -7.28125 C 3.070312 -7.28125 2.617188 -7.164062 2.296875 -6.9375 C 1.972656 -6.707031 1.8125 -6.382812 1.8125 -5.96875 C 1.8125 -5.613281 1.914062 -5.34375 2.125 -5.15625 C 2.34375 -4.976562 2.75 -4.832031 3.34375 -4.71875 L 4 -4.59375 C 4.8125 -4.4375 5.410156 -4.160156 5.796875 -3.765625 C 6.179688 -3.378906 6.375 -2.863281 6.375 -2.21875 C 6.375 -1.4375 6.113281 -0.84375 5.59375 -0.4375 C 5.070312 -0.0390625 4.304688 0.15625 3.296875 0.15625 C 2.921875 0.15625 2.515625 0.109375 2.078125 0.015625 C 1.648438 -0.0664062 1.207031 -0.191406 0.75 -0.359375 L 0.75 -1.46875 C 1.195312 -1.21875 1.628906 -1.03125 2.046875 -0.90625 C 2.472656 -0.78125 2.890625 -0.71875 3.296875 -0.71875 C 3.921875 -0.71875 4.398438 -0.835938 4.734375 -1.078125 C 5.066406 -1.328125 5.234375 -1.675781 5.234375 -2.125 C 5.234375 -2.519531 5.113281 -2.828125 4.875 -3.046875 C 4.632812 -3.273438 4.238281 -3.445312 3.6875 -3.5625 L 3.03125 -3.6875 C 2.21875 -3.84375 1.628906 -4.09375 1.265625 -4.4375 C 0.898438 -4.78125 0.71875 -5.257812 0.71875 -5.875 C 0.71875 -6.582031 0.96875 -7.140625 1.46875 -7.546875 C 1.96875 -7.960938 2.660156 -8.171875 3.546875 -8.171875 C 3.921875 -8.171875 4.300781 -8.132812 4.6875 -8.0625 C 5.082031 -7.988281 5.484375 -7.882812 5.890625 -7.75 Z M 5.890625 -7.75 "/>
</symbol>
<symbol overflow="visible" id="glyph0-4">
<path style="stroke:none;" d="M 1.078125 -8.015625 L 2.171875 -8.015625 L 2.171875 -4.734375 L 6.109375 -4.734375 L 6.109375 -8.015625 L 7.1875 -8.015625 L 7.1875 0 L 6.109375 0 L 6.109375 -3.8125 L 2.171875 -3.8125 L 2.171875 0 L 1.078125 0 Z M 1.078125 -8.015625 "/>
</symbol>
</g>
</defs>
<g id="surface35309">
<rect x="0" y="0" width="300" height="300" style="fill:rgb(100%,100%,100%);fill-opacity:1;stroke:none;"/>
<path style="fill:none;stroke-width:1.2;stroke-linecap:butt;stroke-linejoin:miter;stroke:rgb(0%,0%,0%);stroke-opacity:1;stroke-miterlimit:10;" d="M 140.601562 220.25 L 148.960938 210.117188 "/>
<path style="fill:none;stroke-width:1.2;stroke-linecap:butt;stroke-linejoin:miter;stroke:rgb(100%,0%,0%);stroke-opacity:1;stroke-miterlimit:10;" d="M 148.960938 210.117188 L 157.316406 199.988281 "/>
<path style="fill:none;stroke-width:1.2;stroke-linecap:butt;stroke-linejoin:miter;stroke:rgb(100%,0%,0%);stroke-opacity:1;stroke-miterlimit:10;" d="M 157.316406 199.988281 L 170.269531 202.160156 "/>
<path style="fill:none;stroke-width:1.2;stroke-linecap:butt;stroke-linejoin:miter;stroke:rgb(0%,0%,0%);stroke-opacity:1;stroke-miterlimit:10;" d="M 170.269531 202.160156 L 183.222656 204.332031 "/>
<path style=" stroke:none;fill-rule:nonzero;fill:rgb(100%,100%,100%);fill-opacity:1;" d="M 153.316406 193.488281 L 162.316406 193.488281 L 162.316406 206.488281 L 153.316406 206.488281 Z M 153.316406 193.488281 "/>
<g style="fill:rgb(100%,0%,0%);fill-opacity:1;">
  <use xlink:href="#glyph0-1" x="153.316406" y="203.389648"/>
</g>
<path style="fill:none;stroke-width:1.2;stroke-linecap:butt;stroke-linejoin:miter;stroke:rgb(0%,0%,0%);stroke-opacity:1;stroke-miterlimit:10;" d="M 180.328125 205.414062 L 184.921875 217.71875 "/>
<path style="fill:none;stroke-width:1.2;stroke-linecap:butt;stroke-linejoin:miter;stroke:rgb(100%,0%,0%);stroke-opacity:1;stroke-miterlimit:10;" d="M 184.921875 217.71875 L 189.515625 230.023438 "/>
<path style="fill:none;stroke-width:1.2;stroke-linecap:butt;stroke-linejoin:miter;stroke:rgb(0%,0%,0%);stroke-opacity:1;stroke-miterlimit:10;" d="M 186.117188 203.253906 L 190.710938 215.554688 "/>
<path style="fill:none;stroke-width:1.2;stroke-linecap:butt;stroke-linejoin:miter;stroke:rgb(100%,0%,0%);stroke-opacity:1;stroke-miterlimit:10;" d="M 190.710938 215.554688 L 195.308594 227.859375 "/>
<path style=" stroke:none;fill-rule:nonzero;fill:rgb(0%,0%,0%);fill-opacity:1;" d="M 199.941406 184.070312 L 179.648438 201.382812 L 186.800781 207.285156 Z M 199.941406 184.070312 "/>
<path style=" stroke:none;fill-rule:nonzero;fill:rgb(100%,100%,100%);fill-opacity:1;" d="M 188.410156 222.441406 L 197.410156 222.441406 L 197.410156 235.441406 L 188.410156 235.441406 Z M 188.410156 222.441406 "/>
<g style="fill:rgb(100%,0%,0%);fill-opacity:1;">
  <use xlink:href="#glyph0-1" x="188.410156" y="232.342773"/>
</g>
<path style="fill:none;stroke-width:1.2;stroke-linecap:butt;stroke-linejoin:miter;stroke:rgb(0%,0%,0%);stroke-opacity:1;stroke-miterlimit:10;" d="M 199.941406 184.070312 L 226.15625 185.6875 "/>
<path style="fill:none;stroke-width:1.2;stroke-linecap:butt;stroke-linejoin:miter;stroke:rgb(0%,0%,100%);stroke-opacity:1;stroke-miterlimit:10;" d="M 193.375 158.636719 L 196.65625 171.355469 "/>
<path style="fill:none;stroke-width:1.2;stroke-linecap:butt;stroke-linejoin:miter;stroke:rgb(0%,0%,0%);stroke-opacity:1;stroke-miterlimit:10;" d="M 196.65625 171.355469 L 199.941406 184.070312 "/>
<path style="fill:none;stroke-width:1;stroke-linecap:butt;stroke-linejoin:miter;stroke:rgb(0%,0%,0%);stroke-opacity:1;stroke-miterlimit:10;" d="M 235.796875 161.25 L 235.796875 161.25 M 234.226562 163.808594 L 235.195312 164.191406 M 232.65625 166.363281 L 234.597656 167.128906 M 231.089844 168.921875 L 234 170.070312 M 229.519531 171.480469 L 233.398438 173.007812 M 227.949219 174.035156 L 232.800781 175.949219 M 226.382812 176.59375 L 232.203125 178.886719 M 224.8125 179.148438 L 231.601562 181.828125 M 223.242188 181.707031 L 231.003906 184.769531 M 221.847656 183.984375 L 230.46875 187.386719 "/>
<path style="fill:none;stroke-width:1.2;stroke-linecap:butt;stroke-linejoin:miter;stroke:rgb(0%,0%,0%);stroke-opacity:1;stroke-miterlimit:10;" d="M 235.796875 161.25 L 260.402344 152.0625 "/>
<path style="fill:none;stroke-width:1.2;stroke-linecap:butt;stroke-linejoin:miter;stroke:rgb(0%,0%,0%);stroke-opacity:1;stroke-miterlimit:10;" d="M 215.535156 144.535156 L 235.796875 161.25 "/>
<path style="fill:none;stroke-width:1.2;stroke-linecap:butt;stroke-linejoin:miter;stroke:rgb(0%,0%,0%);stroke-opacity:1;stroke-miterlimit:10;" d="M 260.402344 152.0625 L 264.75 126.15625 "/>
<path style="fill:none;stroke-width:1.2;stroke-linecap:butt;stroke-linejoin:miter;stroke:rgb(0%,0%,0%);stroke-opacity:1;stroke-miterlimit:10;" d="M 264.75 126.15625 L 244.488281 109.441406 "/>
<path style="fill:none;stroke-width:1.2;stroke-linecap:butt;stroke-linejoin:miter;stroke:rgb(0%,0%,0%);stroke-opacity:1;stroke-miterlimit:10;" d="M 244.488281 109.441406 L 219.878906 118.628906 "/>
<path style=" stroke:none;fill-rule:nonzero;fill:rgb(0%,0%,0%);fill-opacity:1;" d="M 244.488281 109.441406 L 253.40625 84.300781 L 244.261719 82.765625 Z M 244.488281 109.441406 "/>
<path style="fill:none;stroke-width:1;stroke-linecap:butt;stroke-linejoin:miter;stroke:rgb(0%,0%,0%);stroke-opacity:1;stroke-miterlimit:10;" d="M 215.535156 144.535156 L 215.535156 144.535156 M 216.535156 141.707031 L 215.507812 141.535156 M 217.539062 138.878906 L 215.484375 138.535156 M 218.542969 136.050781 L 215.457031 135.535156 M 219.546875 133.222656 L 215.433594 132.535156 M 220.550781 130.398438 L 215.40625 129.535156 M 221.550781 127.570312 L 215.382812 126.535156 M 222.554688 124.742188 L 215.355469 123.535156 M 223.558594 121.914062 L 215.332031 120.535156 M 224.453125 119.394531 L 215.308594 117.863281 "/>
<path style="fill:none;stroke-width:1.2;stroke-linecap:butt;stroke-linejoin:miter;stroke:rgb(0%,0%,0%);stroke-opacity:1;stroke-miterlimit:10;" d="M 215.535156 144.535156 L 204.453125 151.585938 "/>
<path style="fill:none;stroke-width:1.2;stroke-linecap:butt;stroke-linejoin:miter;stroke:rgb(0%,0%,100%);stroke-opacity:1;stroke-miterlimit:10;" d="M 204.453125 151.585938 L 193.375 158.636719 "/>
<path style="fill:none;stroke-width:1.2;stroke-linecap:butt;stroke-linejoin:miter;stroke:rgb(0%,0%,100%);stroke-opacity:1;stroke-miterlimit:10;" d="M 193.375 158.636719 L 181.15625 153.820312 "/>
<path style="fill:none;stroke-width:1.2;stroke-linecap:butt;stroke-linejoin:miter;stroke:rgb(0%,0%,0%);stroke-opacity:1;stroke-miterlimit:10;" d="M 181.15625 153.820312 L 168.9375 149 "/>
<path style=" stroke:none;fill-rule:nonzero;fill:rgb(100%,100%,100%);fill-opacity:1;" d="M 189.375 152.136719 L 197.375 152.136719 L 197.375 165.136719 L 189.375 165.136719 Z M 189.375 152.136719 "/>
<g style="fill:rgb(0%,0%,100%);fill-opacity:1;">
  <use xlink:href="#glyph0-2" x="189.375" y="162.038086"/>
</g>
<path style="fill:none;stroke-width:1.2;stroke-linecap:butt;stroke-linejoin:miter;stroke:rgb(0%,0%,0%);stroke-opacity:1;stroke-miterlimit:10;" d="M 168.9375 149 L 165.066406 123.019531 "/>
<path style="fill:none;stroke-width:1.2;stroke-linecap:butt;stroke-linejoin:miter;stroke:rgb(0%,0%,0%);stroke-opacity:1;stroke-miterlimit:10;" d="M 165.066406 123.019531 L 185.628906 106.675781 "/>
<path style="fill:none;stroke-width:1.2;stroke-linecap:butt;stroke-linejoin:miter;stroke:rgb(0%,0%,0%);stroke-opacity:1;stroke-miterlimit:10;" d="M 163.277344 116.546875 L 179.730469 103.472656 "/>
<path style="fill:none;stroke-width:1.2;stroke-linecap:butt;stroke-linejoin:miter;stroke:rgb(0%,0%,0%);stroke-opacity:1;stroke-miterlimit:10;" d="M 140.628906 113.382812 L 165.066406 123.019531 "/>
<path style="fill:none;stroke-width:1.2;stroke-linecap:butt;stroke-linejoin:miter;stroke:rgb(0%,0%,0%);stroke-opacity:1;stroke-miterlimit:10;" d="M 185.628906 106.675781 L 181.757812 80.695312 "/>
<path style="fill:none;stroke-width:1.2;stroke-linecap:butt;stroke-linejoin:miter;stroke:rgb(0%,0%,0%);stroke-opacity:1;stroke-miterlimit:10;" d="M 181.757812 80.695312 L 157.324219 71.058594 "/>
<path style="fill:none;stroke-width:1.2;stroke-linecap:butt;stroke-linejoin:miter;stroke:rgb(0%,0%,0%);stroke-opacity:1;stroke-miterlimit:10;" d="M 177.046875 85.480469 L 157.5 77.773438 "/>
<path style="fill:none;stroke-width:1.2;stroke-linecap:butt;stroke-linejoin:miter;stroke:rgb(0%,0%,0%);stroke-opacity:1;stroke-miterlimit:10;" d="M 157.324219 71.058594 L 136.757812 87.402344 "/>
<path style="fill:none;stroke-width:1.2;stroke-linecap:butt;stroke-linejoin:miter;stroke:rgb(0%,0%,0%);stroke-opacity:1;stroke-miterlimit:10;" d="M 136.757812 87.402344 L 140.628906 113.382812 "/>
<path style="fill:none;stroke-width:1.2;stroke-linecap:butt;stroke-linejoin:miter;stroke:rgb(0%,0%,0%);stroke-opacity:1;stroke-miterlimit:10;" d="M 143.257812 89.089844 L 146.355469 109.875 "/>
<path style="fill:none;stroke-width:1.2;stroke-linecap:butt;stroke-linejoin:miter;stroke:rgb(0%,0%,0%);stroke-opacity:1;stroke-miterlimit:10;" d="M 140.628906 113.382812 L 130.347656 121.554688 "/>
<path style="fill:none;stroke-width:1.2;stroke-linecap:butt;stroke-linejoin:miter;stroke:rgb(100%,0%,0%);stroke-opacity:1;stroke-miterlimit:10;" d="M 130.347656 121.554688 L 120.066406 129.726562 "/>
<path style="fill:none;stroke-width:1.2;stroke-linecap:butt;stroke-linejoin:miter;stroke:rgb(100%,0%,0%);stroke-opacity:1;stroke-miterlimit:10;" d="M 120.066406 129.726562 L 107.847656 124.90625 "/>
<path style="fill:none;stroke-width:1.2;stroke-linecap:butt;stroke-linejoin:miter;stroke:rgb(0%,0%,0%);stroke-opacity:1;stroke-miterlimit:10;" d="M 107.847656 124.90625 L 95.632812 120.089844 "/>
<path style=" stroke:none;fill-rule:nonzero;fill:rgb(100%,100%,100%);fill-opacity:1;" d="M 116.066406 123.226562 L 125.066406 123.226562 L 125.066406 136.226562 L 116.066406 136.226562 Z M 116.066406 123.226562 "/>
<g style="fill:rgb(100%,0%,0%);fill-opacity:1;">
  <use xlink:href="#glyph0-1" x="116.066406" y="133.12793"/>
</g>
<path style="fill:none;stroke-width:1.2;stroke-linecap:butt;stroke-linejoin:miter;stroke:rgb(0%,0%,0%);stroke-opacity:1;stroke-miterlimit:10;" d="M 98.6875 119.632812 L 96.75 106.640625 "/>
<path style="fill:none;stroke-width:1.2;stroke-linecap:butt;stroke-linejoin:miter;stroke:rgb(100%,0%,0%);stroke-opacity:1;stroke-miterlimit:10;" d="M 96.75 106.640625 L 94.816406 93.652344 "/>
<path style="fill:none;stroke-width:1.2;stroke-linecap:butt;stroke-linejoin:miter;stroke:rgb(0%,0%,0%);stroke-opacity:1;stroke-miterlimit:10;" d="M 92.574219 120.542969 L 90.636719 107.554688 "/>
<path style="fill:none;stroke-width:1.2;stroke-linecap:butt;stroke-linejoin:miter;stroke:rgb(100%,0%,0%);stroke-opacity:1;stroke-miterlimit:10;" d="M 90.636719 107.554688 L 88.703125 94.5625 "/>
<path style="fill:none;stroke-width:1.2;stroke-linecap:butt;stroke-linejoin:miter;stroke:rgb(0%,0%,0%);stroke-opacity:1;stroke-miterlimit:10;" d="M 95.632812 120.089844 L 75.066406 136.429688 "/>
<path style=" stroke:none;fill-rule:nonzero;fill:rgb(100%,100%,100%);fill-opacity:1;" d="M 87.757812 87.609375 L 96.757812 87.609375 L 96.757812 100.609375 L 87.757812 100.609375 Z M 87.757812 87.609375 "/>
<g style="fill:rgb(100%,0%,0%);fill-opacity:1;">
  <use xlink:href="#glyph0-1" x="87.757812" y="97.510742"/>
</g>
<path style="fill:none;stroke-width:1.2;stroke-linecap:butt;stroke-linejoin:miter;stroke:rgb(0%,0%,0%);stroke-opacity:1;stroke-miterlimit:10;" d="M 75.066406 136.429688 L 76.203125 162.675781 "/>
<path style="fill:none;stroke-width:1.2;stroke-linecap:butt;stroke-linejoin:miter;stroke:rgb(0%,0%,0%);stroke-opacity:1;stroke-miterlimit:10;" d="M 69.003906 139.324219 L 69.914062 160.316406 "/>
<path style="fill:none;stroke-width:1.2;stroke-linecap:butt;stroke-linejoin:miter;stroke:rgb(80%,80%,0%);stroke-opacity:1;stroke-miterlimit:10;" d="M 49.757812 129.402344 L 62.410156 132.917969 "/>
<path style="fill:none;stroke-width:1.2;stroke-linecap:butt;stroke-linejoin:miter;stroke:rgb(0%,0%,0%);stroke-opacity:1;stroke-miterlimit:10;" d="M 62.410156 132.917969 L 75.066406 136.429688 "/>
<path style="fill:none;stroke-width:1.2;stroke-linecap:butt;stroke-linejoin:miter;stroke:rgb(0%,0%,0%);stroke-opacity:1;stroke-miterlimit:10;" d="M 76.203125 162.675781 L 51.59375 171.863281 "/>
<path style="fill:none;stroke-width:1.2;stroke-linecap:butt;stroke-linejoin:miter;stroke:rgb(0%,0%,0%);stroke-opacity:1;stroke-miterlimit:10;" d="M 51.59375 171.863281 L 35.25 151.300781 "/>
<path style="fill:none;stroke-width:1.2;stroke-linecap:butt;stroke-linejoin:miter;stroke:rgb(0%,0%,0%);stroke-opacity:1;stroke-miterlimit:10;" d="M 54.796875 165.960938 L 41.722656 149.511719 "/>
<path style="fill:none;stroke-width:1.2;stroke-linecap:butt;stroke-linejoin:miter;stroke:rgb(0%,0%,0%);stroke-opacity:1;stroke-miterlimit:10;" d="M 35.25 151.300781 L 42.503906 140.351562 "/>
<path style="fill:none;stroke-width:1.2;stroke-linecap:butt;stroke-linejoin:miter;stroke:rgb(80%,80%,0%);stroke-opacity:1;stroke-miterlimit:10;" d="M 42.503906 140.351562 L 49.757812 129.402344 "/>
<path style=" stroke:none;fill-rule:nonzero;fill:rgb(100%,100%,100%);fill-opacity:1;" d="M 46.757812 122.902344 L 53.757812 122.902344 L 53.757812 135.902344 L 46.757812 135.902344 Z M 46.757812 122.902344 "/>
<g style="fill:rgb(80%,80%,0%);fill-opacity:1;">
  <use xlink:href="#glyph0-3" x="46.757812" y="132.803711"/>
</g>
<path style=" stroke:none;fill-rule:nonzero;fill:rgb(100%,100%,100%);fill-opacity:1;" d="M 240.835938 77.035156 L 257.835938 77.035156 L 257.835938 90.035156 L 240.835938 90.035156 Z M 240.835938 77.035156 "/>
<g style="fill:rgb(100%,0%,0%);fill-opacity:1;">
  <use xlink:href="#glyph0-1" x="240.835938" y="86.936523"/>
  <use xlink:href="#glyph0-4" x="249.236328" y="86.936523"/>
</g>
</g>
</svg>

<svg xmlns="http://www.w3.org/2000/svg" xmlns:xlink="http://www.w3.org/1999/xlink" width="300pt" height="300pt" viewBox="0 0 300 300"><defs><symbol overflow="visible"><path d="M.547 1.938V-7.75h5.5v9.688zm.625-.61h4.266v-8.47H1.171zm0 0"/></symbol><symbol overflow="visible" id="a"><path d="M4.328-7.28c-.78 0-1.406.296-1.875.89-.46.585-.687 1.382-.687 2.39 0 1.012.226 1.813.687 2.406.47.586 1.094.875 1.875.875.79 0 1.414-.288 1.875-.874.457-.593.688-1.394.688-2.406 0-1.008-.23-1.805-.687-2.39-.46-.594-1.086-.89-1.875-.89zm0-.892c1.125 0 2.024.383 2.703 1.14C7.708-6.28 8.048-5.27 8.048-4c0 1.262-.34 2.273-1.016 3.03C6.353-.22 5.454.157 4.33.157S2.3-.22 1.625-.97c-.668-.75-1-1.757-1-3.03 0-1.27.332-2.28 1-3.03.676-.76 1.578-1.142 2.703-1.142zm0 0"/></symbol><symbol overflow="visible" id="b"><path d="M1.078-8.016h1.47l3.546 6.704v-6.704h1.062V0H5.688L2.124-6.703V0H1.078zm0 0"/></symbol><symbol overflow="visible" id="c"><path d="M5.89-7.75v1.047c-.417-.195-.808-.344-1.17-.438-.368-.094-.72-.14-1.064-.14-.586 0-1.04.116-1.36.343-.323.23-.483.554-.483.968 0 .357.1.626.312.814.22.18.625.324 1.22.437L4-4.593c.813.157 1.41.434 1.797.828.383.387.578.903.578 1.547 0 .783-.262 1.376-.78 1.783-.525.398-1.29.593-2.298.593-.375 0-.78-.047-1.22-.14C1.648-.066 1.208-.19.75-.36v-1.11c.445.25.88.44 1.297.564.426.125.844.187 1.25.187.625 0 1.1-.116 1.437-.358.332-.25.5-.598.5-1.047 0-.395-.12-.703-.36-.922-.24-.226-.636-.398-1.186-.515l-.657-.126c-.81-.156-1.4-.406-1.764-.75C.898-4.78.72-5.258.72-5.875c0-.707.25-1.266.75-1.672.5-.414 1.19-.625 2.077-.625.375 0 .754.04 1.14.11.395.074.797.18 1.204.312zm0 0"/></symbol><symbol overflow="visible" id="d"><path d="M1.078-8.016h1.094v3.282H6.11v-3.282h1.077V0H6.11v-3.813H2.17V0H1.078zm0 0"/></symbol></defs><g><path fill="#fff" d="M0 0h300v300H0z"/><path d="M140.602 220.25l8.36-10.133" stroke-width="1.2" stroke="#000" stroke-miterlimit="10" fill="none"/><path d="M148.96 210.117l8.356-10.13M157.316 199.988l12.954 2.172" stroke-width="1.2" stroke="#f00" stroke-miterlimit="10" fill="none"/><path d="M170.27 202.16l12.953 2.172" stroke-width="1.2" stroke="#000" stroke-miterlimit="10" fill="none"/><path d="M153.316 193.488h9v13h-9zm0 0" fill="#fff"/><use xlink:href="#a" x="153.316" y="203.39" fill="#f00"/><path d="M180.328 205.414l4.594 12.305" stroke-width="1.2" stroke="#000" stroke-miterlimit="10" fill="none"/><path d="M184.922 217.72l4.594 12.303" stroke-width="1.2" stroke="#f00" stroke-miterlimit="10" fill="none"/><path d="M186.117 203.254l4.594 12.3" stroke-width="1.2" stroke="#000" stroke-miterlimit="10" fill="none"/><path d="M190.71 215.555l4.6 12.304" stroke-width="1.2" stroke="#f00" stroke-miterlimit="10" fill="none"/><path d="M199.94 184.07l-20.292 17.313 7.153 5.902zm0 0"/><path d="M188.41 222.44h9v13h-9zm0 0" fill="#fff"/><use xlink:href="#a" x="188.41" y="232.343" fill="#f00"/><path d="M199.94 184.07l26.216 1.618" stroke-width="1.2" stroke="#000" stroke-miterlimit="10" fill="none"/><path d="M193.375 158.637l3.28 12.718" stroke-width="1.2" stroke="#00f" stroke-miterlimit="10" fill="none"/><path d="M196.656 171.355l3.285 12.715" stroke-width="1.2" stroke="#000" stroke-miterlimit="10" fill="none"/><path d="M235.797 161.25m-1.57 2.56l.968.38m-2.54 2.173l1.943.766m-3.508 1.792l2.91 1.148m-4.48 1.41l3.878 1.528m-5.45 1.027l4.853 1.914m-6.417.644l5.82 2.293m-7.39.26l6.79 2.68m-8.36-.12l7.76 3.063m-9.155-.786l8.62 3.403" stroke="#000" stroke-miterlimit="10" fill="none"/><path d="M235.797 161.25l24.605-9.188M215.535 144.535l20.262 16.715M260.402 152.063l4.348-25.907M264.75 126.156l-20.262-16.715M244.488 109.44l-24.61 9.19" stroke-width="1.2" stroke="#000" stroke-miterlimit="10" fill="none"/><path d="M244.488 109.44l8.918-25.14-9.144-1.534zm0 0"/><path d="M215.535 144.535m1-2.828l-1.027-.172m2.03-2.656l-2.054-.345m3.06-2.484l-3.087-.515m4.09-2.312l-4.113-.688m5.117-2.137l-5.144-.863m6.145-1.965l-6.167-1.035m7.172-1.793l-7.2-1.207m8.204-1.62l-8.228-1.38m9.12-1.14l-9.143-1.532" stroke="#000" stroke-miterlimit="10" fill="none"/><path d="M215.535 144.535l-11.082 7.05" stroke-width="1.2" stroke="#000" stroke-miterlimit="10" fill="none"/><path d="M204.453 151.586l-11.078 7.05M193.375 158.637l-12.22-4.817" stroke-width="1.2" stroke="#00f" stroke-miterlimit="10" fill="none"/><path d="M181.156 153.82l-12.22-4.82" stroke-width="1.2" stroke="#000" stroke-miterlimit="10" fill="none"/><path d="M189.375 152.137h8v13h-8zm0 0" fill="#fff"/><use xlink:href="#b" x="189.375" y="162.038" fill="#00f"/><path d="M168.938 149l-3.872-25.98M165.066 123.02l20.563-16.344M163.277 116.547l16.453-13.074M140.63 113.383l24.436 9.637M185.63 106.676l-3.872-25.98M181.758 80.695l-24.434-9.636M177.047 85.48L157.5 77.773M157.324 71.06L136.758 87.4M136.758 87.402l3.87 25.98M143.258 89.09l3.097 20.785M140.63 113.383l-10.282 8.172" stroke-width="1.2" stroke="#000" stroke-miterlimit="10" fill="none"/><path d="M130.348 121.555l-10.282 8.172M120.066 129.727l-12.218-4.82" stroke-width="1.2" stroke="#f00" stroke-miterlimit="10" fill="none"/><path d="M107.848 124.906l-12.215-4.816" stroke-width="1.2" stroke="#000" stroke-miterlimit="10" fill="none"/><path d="M116.066 123.227h9v13h-9zm0 0" fill="#fff"/><use xlink:href="#a" x="116.066" y="133.128" fill="#f00"/><path d="M98.688 119.633L96.75 106.64" stroke-width="1.2" stroke="#000" stroke-miterlimit="10" fill="none"/><path d="M96.75 106.64l-1.934-12.988" stroke-width="1.2" stroke="#f00" stroke-miterlimit="10" fill="none"/><path d="M92.574 120.543l-1.937-12.988" stroke-width="1.2" stroke="#000" stroke-miterlimit="10" fill="none"/><path d="M90.637 107.555l-1.934-12.993" stroke-width="1.2" stroke="#f00" stroke-miterlimit="10" fill="none"/><path d="M95.633 120.09l-20.567 16.34" stroke-width="1.2" stroke="#000" stroke-miterlimit="10" fill="none"/><path d="M87.758 87.61h9v13h-9zm0 0" fill="#fff"/><use xlink:href="#a" x="87.758" y="97.511" fill="#f00"/><path d="M75.066 136.43l1.137 26.246M69.004 139.324l.91 20.992" stroke-width="1.2" stroke="#000" stroke-miterlimit="10" fill="none"/><path d="M49.758 129.402l12.652 3.516" stroke-width="1.2" stroke="#cc0" stroke-miterlimit="10" fill="none"/><path d="M62.41 132.918l12.656 3.512M76.203 162.676l-24.61 9.187M51.594 171.863L35.25 151.3M54.797 165.96l-13.074-16.448M35.25 151.3l7.254-10.948" stroke-width="1.2" stroke="#000" stroke-miterlimit="10" fill="none"/><path d="M42.504 140.352l7.254-10.95" stroke-width="1.2" stroke="#cc0" stroke-miterlimit="10" fill="none"/><path d="M46.758 122.902h7v13h-7zm0 0" fill="#fff"/><use xlink:href="#c" x="46.758" y="132.804" fill="#cc0"/><path d="M240.836 77.035h17v13h-17zm0 0" fill="#fff"/><g fill="#f00"><use xlink:href="#a" x="240.836" y="86.937"/><use xlink:href="#d" x="249.236" y="86.937"/></g></g></svg>
